src/assets-svg/car.svg

<svg width="18" height="17" viewBox="0 0 18 17" fill="none" xmlns="http://www.w3.org/2000/svg">
<path d="M14.6663 8.32322H3.33301C3.17009 8.32322 3.02134 8.25238 2.92217 8.12488C2.82301 8.00447 2.78051 7.83447 2.81592 7.67863L3.61634 3.85363C3.87842 2.61405 4.40967 1.47363 6.51342 1.47363H11.493C13.5968 1.47363 14.128 2.62113 14.3901 3.85363L15.1905 7.68572C15.2259 7.84155 15.1834 8.00447 15.0843 8.13197C14.978 8.25238 14.8293 8.32322 14.6663 8.32322ZM3.98467 7.26072H14.0076L13.3418 4.07322C13.1434 3.1453 12.9097 2.53613 11.4859 2.53613H6.51342C5.08967 2.53613 4.85592 3.1453 4.65759 4.07322L3.98467 7.26072Z" fill="#292D32"/>
<path d="M14.638 16.1149H13.3064C12.1589 16.1149 11.9393 15.4562 11.7976 15.0241L11.656 14.5991C11.4718 14.0607 11.4505 13.9899 10.813 13.9899H7.18638C6.54888 13.9899 6.50638 14.1103 6.34346 14.5991L6.2018 15.0241C6.05305 15.4632 5.84055 16.1149 4.69305 16.1149H3.36138C2.8018 16.1149 2.26346 15.8812 1.88805 15.4703C1.51971 15.0666 1.34263 14.5282 1.39221 13.9899L1.78888 9.67616C1.89513 8.50741 2.2068 7.26074 4.48055 7.26074H13.5189C15.7926 7.26074 16.0972 8.50741 16.2105 9.67616L16.6072 13.9899C16.6568 14.5282 16.4797 15.0666 16.1114 15.4703C15.736 15.8812 15.1976 16.1149 14.638 16.1149ZM7.18638 12.9274H10.813C12.1022 12.9274 12.4068 13.5012 12.6618 14.252L12.8105 14.6912C12.931 15.0524 12.931 15.0595 13.3135 15.0595H14.6451C14.9072 15.0595 15.1551 14.9532 15.3322 14.762C15.5022 14.5778 15.5801 14.3441 15.5589 14.0962L15.1622 9.78241C15.0701 8.82616 14.9568 8.33033 13.533 8.33033H4.48055C3.04971 8.33033 2.93638 8.82616 2.85138 9.78241L2.45471 14.0962C2.43346 14.3441 2.51138 14.5778 2.68138 14.762C2.85138 14.9532 3.10638 15.0595 3.36847 15.0595H4.70013C5.08263 15.0595 5.08263 15.0524 5.20305 14.6982L5.34471 14.2662C5.5218 13.6995 5.78388 12.9274 7.18638 12.9274Z" fill="#292D32"/>
<path d="M3.33309 6.19824H2.62476C2.33434 6.19824 2.09351 5.95741 2.09351 5.66699C2.09351 5.37658 2.33434 5.13574 2.62476 5.13574H3.33309C3.62351 5.13574 3.86434 5.37658 3.86434 5.66699C3.86434 5.95741 3.62351 6.19824 3.33309 6.19824Z" fill="#292D32"/>
<path d="M15.3747 6.19824H14.6664C14.376 6.19824 14.1351 5.95741 14.1351 5.66699C14.1351 5.37658 14.376 5.13574 14.6664 5.13574H15.3747C15.6651 5.13574 15.906 5.37658 15.906 5.66699C15.906 5.95741 15.6651 6.19824 15.3747 6.19824Z" fill="#292D32"/>
<path d="M8.99976 4.07292C8.70934 4.07292 8.46851 3.83208 8.46851 3.54167V2.125C8.46851 1.83458 8.70934 1.59375 8.99976 1.59375C9.29017 1.59375 9.53101 1.83458 9.53101 2.125V3.54167C9.53101 3.83208 9.29017 4.07292 8.99976 4.07292Z" fill="#292D32"/>
<path d="M10.0623 4.07324H7.93726C7.64684 4.07324 7.40601 3.83241 7.40601 3.54199C7.40601 3.25158 7.64684 3.01074 7.93726 3.01074H10.0623C10.3527 3.01074 10.5935 3.25158 10.5935 3.54199C10.5935 3.83241 10.3527 4.07324 10.0623 4.07324Z" fill="#292D32"/>
<path d="M6.87476 11.1562H4.74976C4.45934 11.1562 4.21851 10.9154 4.21851 10.625C4.21851 10.3346 4.45934 10.0938 4.74976 10.0938H6.87476C7.16517 10.0938 7.40601 10.3346 7.40601 10.625C7.40601 10.9154 7.16517 11.1562 6.87476 11.1562Z" fill="#292D32"/>
<path d="M13.2498 11.1562H11.1248C10.8343 11.1562 10.5935 10.9154 10.5935 10.625C10.5935 10.3346 10.8343 10.0938 11.1248 10.0938H13.2498C13.5402 10.0938 13.781 10.3346 13.781 10.625C13.781 10.9154 13.5402 11.1562 13.2498 11.1562Z" fill="#292D32"/>
</svg>

<svg width="18" height="17" fill="none" xmlns="http://www.w3.org/2000/svg"><path d="M14.666 8.323H3.333a.513.513 0 0 1-.41-.198.53.53 0 0 1-.107-.446l.8-3.825c.262-1.24.794-2.38 2.897-2.38h4.98c2.104 0 2.635 1.147 2.897 2.38l.8 3.832a.536.536 0 0 1-.106.446.554.554 0 0 1-.418.191ZM3.985 7.261h10.023l-.666-3.188c-.199-.928-.432-1.537-1.856-1.537H6.513c-1.423 0-1.657.61-1.855 1.537l-.673 3.188Z" fill="#292D32"/><path d="M14.638 16.115h-1.332c-1.147 0-1.367-.659-1.508-1.09l-.142-.426c-.184-.538-.206-.61-.843-.61H7.186c-.637 0-.68.121-.843.61l-.141.425c-.149.44-.361 1.09-1.509 1.09H3.361c-.56 0-1.098-.233-1.473-.644a1.933 1.933 0 0 1-.496-1.48l.397-4.314c.106-1.169.418-2.415 2.692-2.415h9.038c2.274 0 2.578 1.246 2.691 2.415l.397 4.314a1.933 1.933 0 0 1-.496 1.48 2 2 0 0 1-1.473.645Zm-7.452-3.188h3.627c1.29 0 1.594.574 1.849 1.325l.148.44c.121.36.121.367.503.367h1.332c.262 0 .51-.106.687-.297a.856.856 0 0 0 .227-.666l-.397-4.314c-.092-.956-.205-1.452-1.629-1.452H4.481c-1.431 0-1.545.496-1.63 1.452l-.396 4.314a.856.856 0 0 0 .226.666.92.92 0 0 0 .687.297H4.7c.383 0 .383-.007.503-.36l.142-.433c.177-.566.439-1.339 1.841-1.339ZM3.333 6.198h-.708a.535.535 0 0 1-.531-.531c0-.29.24-.531.53-.531h.71c.29 0 .53.24.53.531 0 .29-.24.531-.53.531ZM15.375 6.198h-.709a.535.535 0 0 1-.53-.531c0-.29.24-.531.53-.531h.709c.29 0 .531.24.531.531 0 .29-.24.531-.531.531ZM9 4.073a.535.535 0 0 1-.531-.531V2.125c0-.29.24-.531.53-.531.291 0 .532.24.532.531v1.417c0 .29-.24.53-.531.53Z" fill="#292D32"/><path d="M10.062 4.073H7.937a.535.535 0 0 1-.531-.531c0-.29.24-.531.531-.531h2.125c.29 0 .532.24.532.531 0 .29-.241.531-.532.531ZM6.875 11.156H4.75a.535.535 0 0 1-.531-.531c0-.29.24-.531.53-.531h2.126c.29 0 .531.24.531.531 0 .29-.24.531-.531.531ZM13.25 11.156h-2.125a.535.535 0 0 1-.531-.531c0-.29.24-.531.53-.531h2.126c.29 0 .531.24.531.531 0 .29-.24.531-.531.531Z" fill="#292D32"/></svg>
